proprietary/assets/icons/op-kantoor/document-wisselen.svg

<svg enable-background="new 0 0 64 64" height="64" viewBox="0 0 64 64" width="64" xmlns="http://www.w3.org/2000/svg"><path d="m0 0h64v64h-64z" fill="none"/><path d="m12.7 29h1.8c1 0 1.6-.5 1.7-1.2 1-5.6 4.5-10.3 9.3-13l-.5 4c-.1.7.4 1.4 1.1 1.7.4.1.7.1 1.1 0 .3-.1.6-.3.8-.7l5.4-9.5c.2-.4.3-.9.1-1.3s-.6-.8-1-.9l-10.8-3.2c-.7-.2-1.5.1-1.8.8s-.1 1.5.4 1.9l3.3 2.5c-6.5 3.4-11.2 9.7-12.4 17.1-.1 1 .6 1.8 1.5 1.8zm45.7-16.6-7.8-7.8c-.4-.4-.9-.6-1.4-.6h-11.2c-1.1 0-2 .9-2 2v25c0 1.1.9 2 2 2h19c1.1 0 2-.9 2-2v-17.2c0-.5-.2-1-.6-1.4zm-2.4 17.6h-17v-23h10v5c0 1.1.9 2 2 2h5zm-4.7 5h-1.8c-1 0-1.6.5-1.7 1.2-1 5.6-4.5 10.3-9.3 13l.5-4c.1-.7-.4-1.4-1.1-1.7-.4-.1-.7-.1-1.1 0-.3.1-.6.3-.8.7l-5.4 9.5c-.2.4-.3.9-.1 1.3s.6.8 1 .9l10.7 3.1c.7.2 1.5-.1 1.8-.8s.1-1.5-.4-1.9l-3.3-2.5c6.5-3.4 11.2-9.7 12.4-17.1.3-.9-.4-1.7-1.4-1.7zm-31.7-3.4c-.4-.4-.9-.6-1.4-.6h-11.2c-1.1 0-2 .9-2 2v25c0 1.1.9 2 2 2h19c1.1 0 2-.9 2-2v-17.2c0-.5-.2-1-.6-1.4zm5.4 25.4h-17v-23h10v5c0 1.1.9 2 2 2h5z"/></svg>

<?xml version="1.0" encoding="utf-8"?>
<!-- Generator: Adobe Illustrator 21.0.2, SVG Export Plug-In . SVG Version: 6.00 Build 0)  -->
<!DOCTYPE svg PUBLIC "-//W3C//DTD SVG 1.1//EN" "http://www.w3.org/Graphics/SVG/1.1/DTD/svg11.dtd">
<svg version="1.1" xmlns="http://www.w3.org/2000/svg" xmlns:xlink="http://www.w3.org/1999/xlink" x="0px" y="0px" width="64px"
	 height="64px" viewBox="0 0 64 64" style="enable-background:new 0 0 64 64;" xml:space="preserve">
<style type="text/css">
	.st0{fill:none;}
</style>
<g id="_x36_4px_Box">
	<rect class="st0" width="64" height="64"/>
</g>
<g id="Icon">
	<g>
		<g>
			<path d="M12.7,29h1.8c1,0,1.6-0.5,1.7-1.2c1-5.6,4.5-10.3,9.3-13l-0.5,4c-0.1,0.7,0.4,1.4,1.1,1.7c0.4,0.1,0.7,0.1,1.1,0
				c0.3-0.1,0.6-0.3,0.8-0.7l5.4-9.5c0.2-0.4,0.3-0.9,0.1-1.3c-0.2-0.4-0.6-0.8-1-0.9L21.7,4.9C21,4.7,20.2,5,19.9,5.7
				c-0.3,0.7-0.1,1.5,0.4,1.9l3.3,2.5c-6.5,3.4-11.2,9.7-12.4,17.1C11.1,28.2,11.8,29,12.7,29z M58.4,12.4l-7.8-7.8
				C50.2,4.2,49.7,4,49.2,4H38c-1.1,0-2,0.9-2,2v25c0,1.1,0.9,2,2,2h19c1.1,0,2-0.9,2-2V13.8C59,13.3,58.8,12.8,58.4,12.4z M56,30
				H39V7h10v5c0,1.1,0.9,2,2,2h5V30z M51.3,35h-1.8c-1,0-1.6,0.5-1.7,1.2c-1,5.6-4.5,10.3-9.3,13l0.5-4c0.1-0.7-0.4-1.4-1.1-1.7
				c-0.4-0.1-0.7-0.1-1.1,0c-0.3,0.1-0.6,0.3-0.8,0.7l-5.4,9.5c-0.2,0.4-0.3,0.9-0.1,1.3c0.2,0.4,0.6,0.8,1,0.9l10.7,3.1
				c0.7,0.2,1.5-0.1,1.8-0.8c0.3-0.7,0.1-1.5-0.4-1.9l-3.3-2.5c6.5-3.4,11.2-9.7,12.4-17.1C53,35.8,52.3,35,51.3,35z M19.6,31.6
				c-0.4-0.4-0.9-0.6-1.4-0.6H7c-1.1,0-2,0.9-2,2v25c0,1.1,0.9,2,2,2h19c1.1,0,2-0.9,2-2V40.8c0-0.5-0.2-1-0.6-1.4L19.6,31.6z
				 M25,57H8V34h10v5c0,1.1,0.9,2,2,2h5V57z"/>
		</g>
	</g>
</g>
</svg>
